X: 1
T: The High Level
R: hornpipe
M: 4/4
L: 1/8
K: Gmaj
d>c|:(3BdB G>B D>G B,>D|G,>B,D>G B2 A>B|c>AF>A D>AF>A|d^cd>e d>=cB>A|
G>AB>G D>GB,>D|G,>B,D>G B>G D2|E>FG>A B>c^c>d|1e>cA>F G2 d>c:|2e>cA>F G2A>G||
F>AD>A F>AD>A|F>DF>A d>AF>A|(3BdB G>c (3BdB G>c|B>GB>d g>dB>d|
^c>eA>e c>eA>e|^c>Ac>e a>ec>e|d2 e>f g>e^c>e|d>^cd>e d2 (3=cBA|
G2 D>G B2 G>B|d2 e>d c>BA>G|F2 D>F A2 F>A|d>ef>e d>cB>A|
G2 D>G B2 G>B|d2 c>B c>BA>G|E>FG>A B>c^c>d|e>cA>F G2 d>c||


Tune 2261	Setting 15631

